!!!OTL: AENNCHEN VON THARAU
!!!ARE: Europa, Mitteleuropa, Deutschland
!!!SCT: B0376
!!!YEM: Copyright 1995, estate of Helmut Schaffrath.
**kern
*ICvox
*Ivox
*M3/4
*k[]
*C:
=1
{4.G
8A
4G
=2
4G
4c}
{4c
=3
4.d
8e
4d
=4
2c
4r}
=5
{4B
4B
4B
=6
4.d
8c
4B}
=7
{4.A
8B
4A
=8
2G
4r}
=9
{4.G
8A
4G
=10
4G
4c}
{4c
=11
4.d
8e
4d
=12
2c
4r}
=13
{4B
4B
4B
=14
4.d
8c
4B}
=15
{4.A
8B
4A
=16
2G
4r}
=17
{4.G
8G
4A
=18
4B
4G}
{4A
=19
4B
4B
4c
=20
2d
4r}
=21
{4c
4d
4e
=22
4.f
8e
4d}
=23
{4c
4d
4B
=24
2c
4r}
==
!!!AGN: Liebes - Lied, Liebes - Lust
!!!ONB: ESAC (Essen Associative Code) Database: BOEHME
!!!AMT: simple triple
!!!AIN: vox
!!!EED: Helmut Schaffrath
!!!EEV: 1.0
*-
